images/16758123.svg

<?xml version="1.0" encoding="UTF-8"?>
<svg xmlns="http://www.w3.org/2000/svg" xmlns:xlink="http://www.w3.org/1999/xlink" width="300pt" height="300pt" viewBox="0 0 300 300" version="1.1">
<defs>
<g>
<symbol overflow="visible" id="glyph0-0">
<path style="stroke:none;" d="M 0.453125 1.59375 L 0.453125 -6.34375 L 4.953125 -6.34375 L 4.953125 1.59375 Z M 0.953125 1.09375 L 4.453125 1.09375 L 4.453125 -5.84375 L 0.953125 -5.84375 Z M 0.953125 1.09375 "/>
</symbol>
<symbol overflow="visible" id="glyph0-1">
<path style="stroke:none;" d="M 3.546875 -5.953125 C 2.898438 -5.953125 2.382812 -5.710938 2 -5.234375 C 1.625 -4.753906 1.4375 -4.101562 1.4375 -3.28125 C 1.4375 -2.445312 1.625 -1.789062 2 -1.3125 C 2.382812 -0.832031 2.898438 -0.59375 3.546875 -0.59375 C 4.191406 -0.59375 4.703125 -0.832031 5.078125 -1.3125 C 5.453125 -1.789062 5.640625 -2.445312 5.640625 -3.28125 C 5.640625 -4.101562 5.453125 -4.753906 5.078125 -5.234375 C 4.703125 -5.710938 4.191406 -5.953125 3.546875 -5.953125 Z M 3.546875 -6.6875 C 4.460938 -6.6875 5.195312 -6.375 5.75 -5.75 C 6.300781 -5.132812 6.578125 -4.3125 6.578125 -3.28125 C 6.578125 -2.238281 6.300781 -1.410156 5.75 -0.796875 C 5.195312 -0.179688 4.460938 0.125 3.546875 0.125 C 2.617188 0.125 1.878906 -0.179688 1.328125 -0.796875 C 0.773438 -1.410156 0.5 -2.238281 0.5 -3.28125 C 0.5 -4.3125 0.773438 -5.132812 1.328125 -5.75 C 1.878906 -6.375 2.617188 -6.6875 3.546875 -6.6875 Z M 3.546875 -6.6875 "/>
</symbol>
</g>
</defs>
<g id="surface41689">
<rect x="0" y="0" width="300" height="300" style="fill:rgb(100%,100%,100%);fill-opacity:1;stroke:none;"/>
<path style="fill:none;stroke-width:1;stroke-linecap:butt;stroke-linejoin:miter;stroke:rgb(0%,0%,0%);stroke-opacity:1;stroke-miterlimit:10;" d="M 141.335938 155.945312 L 141.335938 155.945312 M 141.675781 158.925781 L 142.675781 158.628906 M 142.011719 161.90625 L 144.011719 161.316406 M 142.347656 164.886719 L 145.347656 164 M 142.683594 167.867188 L 146.683594 166.6875 M 143.023438 170.847656 L 148.023438 169.371094 M 143.359375 173.832031 L 149.359375 172.058594 M 143.695312 176.8125 L 150.695312 174.742188 M 143.734375 177.144531 L 150.847656 175.042969 "/>
<path style="fill:none;stroke-width:1.2;stroke-linecap:butt;stroke-linejoin:miter;stroke:rgb(100%,0%,0%);stroke-opacity:1;stroke-miterlimit:10;" d="M 168.292969 176.660156 L 157.792969 176.378906 "/>
<path style="fill:none;stroke-width:1.2;stroke-linecap:butt;stroke-linejoin:miter;stroke:rgb(0%,0%,0%);stroke-opacity:1;stroke-miterlimit:10;" d="M 157.792969 176.378906 L 147.289062 176.09375 "/>
<path style="fill:none;stroke-width:1.2;stroke-linecap:butt;stroke-linejoin:miter;stroke:rgb(0%,0%,0%);stroke-opacity:1;stroke-miterlimit:10;" d="M 141.335938 155.945312 L 158.664062 144.054688 "/>
<path style="fill:none;stroke-width:1.2;stroke-linecap:butt;stroke-linejoin:miter;stroke:rgb(0%,0%,0%);stroke-opacity:1;stroke-miterlimit:10;" d="M 124.675781 143.140625 L 141.335938 155.945312 "/>
<path style="fill:none;stroke-width:1.2;stroke-linecap:butt;stroke-linejoin:miter;stroke:rgb(0%,0%,0%);stroke-opacity:1;stroke-miterlimit:10;" d="M 158.664062 144.054688 L 152.710938 123.90625 "/>
<path style="fill:none;stroke-width:1.2;stroke-linecap:butt;stroke-linejoin:miter;stroke:rgb(0%,0%,0%);stroke-opacity:1;stroke-miterlimit:10;" d="M 158.664062 144.054688 L 175.324219 156.859375 "/>
<path style="fill:none;stroke-width:1.2;stroke-linecap:butt;stroke-linejoin:miter;stroke:rgb(0%,0%,0%);stroke-opacity:1;stroke-miterlimit:10;" d="M 152.710938 123.90625 L 142.207031 123.621094 "/>
<path style="fill:none;stroke-width:1.2;stroke-linecap:butt;stroke-linejoin:miter;stroke:rgb(100%,0%,0%);stroke-opacity:1;stroke-miterlimit:10;" d="M 142.207031 123.621094 L 131.707031 123.339844 "/>
<path style="fill:none;stroke-width:1.2;stroke-linecap:butt;stroke-linejoin:miter;stroke:rgb(100%,0%,0%);stroke-opacity:1;stroke-miterlimit:10;" d="M 131.707031 123.339844 L 128.191406 133.238281 "/>
<path style="fill:none;stroke-width:1.2;stroke-linecap:butt;stroke-linejoin:miter;stroke:rgb(0%,0%,0%);stroke-opacity:1;stroke-miterlimit:10;" d="M 128.191406 133.238281 L 124.675781 143.140625 "/>
<path style=" stroke:none;fill-rule:nonzero;fill:rgb(100%,100%,100%);fill-opacity:1;" d="M 127.707031 117.839844 L 135.707031 117.839844 L 135.707031 128.839844 L 127.707031 128.839844 Z M 127.707031 117.839844 "/>
<g style="fill:rgb(100%,0%,0%);fill-opacity:1;">
  <use xlink:href="#glyph0-1" x="127.707031" y="126.50293"/>
</g>
<path style="fill:none;stroke-width:1.2;stroke-linecap:butt;stroke-linejoin:miter;stroke:rgb(0%,0%,0%);stroke-opacity:1;stroke-miterlimit:10;" d="M 124.675781 143.140625 L 104.527344 149.09375 "/>
<path style="fill:none;stroke-width:1.2;stroke-linecap:butt;stroke-linejoin:miter;stroke:rgb(0%,0%,0%);stroke-opacity:1;stroke-miterlimit:10;" d="M 104.527344 149.09375 L 89.296875 134.617188 "/>
<path style="fill:none;stroke-width:1.2;stroke-linecap:butt;stroke-linejoin:miter;stroke:rgb(0%,0%,0%);stroke-opacity:1;stroke-miterlimit:10;" d="M 99.597656 151.230469 L 87.414062 139.648438 "/>
<path style="fill:none;stroke-width:1.2;stroke-linecap:butt;stroke-linejoin:miter;stroke:rgb(0%,0%,0%);stroke-opacity:1;stroke-miterlimit:10;" d="M 99.605469 169.519531 L 104.527344 149.09375 "/>
<path style="fill:none;stroke-width:1.2;stroke-linecap:butt;stroke-linejoin:miter;stroke:rgb(0%,0%,0%);stroke-opacity:1;stroke-miterlimit:10;" d="M 89.296875 134.617188 L 69.144531 140.570312 "/>
<path style="fill:none;stroke-width:1.2;stroke-linecap:butt;stroke-linejoin:miter;stroke:rgb(0%,0%,0%);stroke-opacity:1;stroke-miterlimit:10;" d="M 69.144531 140.570312 L 64.222656 161 "/>
<path style="fill:none;stroke-width:1.2;stroke-linecap:butt;stroke-linejoin:miter;stroke:rgb(0%,0%,0%);stroke-opacity:1;stroke-miterlimit:10;" d="M 63.847656 141.457031 L 59.910156 157.796875 "/>
<path style="fill:none;stroke-width:1.2;stroke-linecap:butt;stroke-linejoin:miter;stroke:rgb(100%,0%,0%);stroke-opacity:1;stroke-miterlimit:10;" d="M 51.238281 129.578125 L 60.191406 135.074219 "/>
<path style="fill:none;stroke-width:1.2;stroke-linecap:butt;stroke-linejoin:miter;stroke:rgb(0%,0%,0%);stroke-opacity:1;stroke-miterlimit:10;" d="M 60.191406 135.074219 L 69.144531 140.570312 "/>
<path style="fill:none;stroke-width:1.2;stroke-linecap:butt;stroke-linejoin:miter;stroke:rgb(0%,0%,0%);stroke-opacity:1;stroke-miterlimit:10;" d="M 64.222656 161 L 79.457031 175.472656 "/>
<path style="fill:none;stroke-width:1.2;stroke-linecap:butt;stroke-linejoin:miter;stroke:rgb(0%,0%,0%);stroke-opacity:1;stroke-miterlimit:10;" d="M 64.222656 161 L 53.75 161.816406 "/>
<path style="fill:none;stroke-width:1.2;stroke-linecap:butt;stroke-linejoin:miter;stroke:rgb(100%,0%,0%);stroke-opacity:1;stroke-miterlimit:10;" d="M 53.75 161.816406 L 43.277344 162.632812 "/>
<path style="fill:none;stroke-width:1.2;stroke-linecap:butt;stroke-linejoin:miter;stroke:rgb(0%,0%,0%);stroke-opacity:1;stroke-miterlimit:10;" d="M 79.457031 175.472656 L 99.605469 169.519531 "/>
<path style="fill:none;stroke-width:1.2;stroke-linecap:butt;stroke-linejoin:miter;stroke:rgb(0%,0%,0%);stroke-opacity:1;stroke-miterlimit:10;" d="M 80.070312 170.136719 L 96.191406 165.375 "/>
<path style="fill:none;stroke-width:1.2;stroke-linecap:butt;stroke-linejoin:miter;stroke:rgb(100%,0%,0%);stroke-opacity:1;stroke-miterlimit:10;" d="M 43.277344 162.632812 L 39.261719 152.921875 "/>
<path style="fill:none;stroke-width:1.2;stroke-linecap:butt;stroke-linejoin:miter;stroke:rgb(0%,0%,0%);stroke-opacity:1;stroke-miterlimit:10;" d="M 39.261719 152.921875 L 35.25 143.214844 "/>
<path style=" stroke:none;fill-rule:nonzero;fill:rgb(100%,100%,100%);fill-opacity:1;" d="M 39.277344 157.132812 L 47.277344 157.132812 L 47.277344 168.132812 L 39.277344 168.132812 Z M 39.277344 157.132812 "/>
<g style="fill:rgb(100%,0%,0%);fill-opacity:1;">
  <use xlink:href="#glyph0-1" x="39.277344" y="165.795898"/>
</g>
<path style="fill:none;stroke-width:1.2;stroke-linecap:butt;stroke-linejoin:miter;stroke:rgb(0%,0%,0%);stroke-opacity:1;stroke-miterlimit:10;" d="M 35.25 143.214844 L 43.242188 136.394531 "/>
<path style="fill:none;stroke-width:1.2;stroke-linecap:butt;stroke-linejoin:miter;stroke:rgb(100%,0%,0%);stroke-opacity:1;stroke-miterlimit:10;" d="M 43.242188 136.394531 L 51.238281 129.578125 "/>
<path style=" stroke:none;fill-rule:nonzero;fill:rgb(100%,100%,100%);fill-opacity:1;" d="M 47.238281 124.078125 L 55.238281 124.078125 L 55.238281 135.078125 L 47.238281 135.078125 Z M 47.238281 124.078125 "/>
<g style="fill:rgb(100%,0%,0%);fill-opacity:1;">
  <use xlink:href="#glyph0-1" x="47.238281" y="132.741211"/>
</g>
<path style="fill:none;stroke-width:1.2;stroke-linecap:butt;stroke-linejoin:miter;stroke:rgb(0%,0%,0%);stroke-opacity:1;stroke-miterlimit:10;" d="M 175.324219 156.859375 L 171.808594 166.761719 "/>
<path style="fill:none;stroke-width:1.2;stroke-linecap:butt;stroke-linejoin:miter;stroke:rgb(100%,0%,0%);stroke-opacity:1;stroke-miterlimit:10;" d="M 171.808594 166.761719 L 168.292969 176.660156 "/>
<path style="fill:none;stroke-width:1.2;stroke-linecap:butt;stroke-linejoin:miter;stroke:rgb(0%,0%,0%);stroke-opacity:1;stroke-miterlimit:10;" d="M 175.324219 156.859375 L 195.472656 150.90625 "/>
<path style=" stroke:none;fill-rule:nonzero;fill:rgb(100%,100%,100%);fill-opacity:1;" d="M 164.292969 171.160156 L 172.292969 171.160156 L 172.292969 182.160156 L 164.292969 182.160156 Z M 164.292969 171.160156 "/>
<g style="fill:rgb(100%,0%,0%);fill-opacity:1;">
  <use xlink:href="#glyph0-1" x="164.292969" y="179.823242"/>
</g>
<path style="fill:none;stroke-width:1.2;stroke-linecap:butt;stroke-linejoin:miter;stroke:rgb(0%,0%,0%);stroke-opacity:1;stroke-miterlimit:10;" d="M 195.472656 150.90625 L 210.703125 165.382812 "/>
<path style="fill:none;stroke-width:1.2;stroke-linecap:butt;stroke-linejoin:miter;stroke:rgb(0%,0%,0%);stroke-opacity:1;stroke-miterlimit:10;" d="M 200.402344 148.769531 L 212.585938 160.351562 "/>
<path style="fill:none;stroke-width:1.2;stroke-linecap:butt;stroke-linejoin:miter;stroke:rgb(0%,0%,0%);stroke-opacity:1;stroke-miterlimit:10;" d="M 200.394531 130.480469 L 195.472656 150.90625 "/>
<path style="fill:none;stroke-width:1.2;stroke-linecap:butt;stroke-linejoin:miter;stroke:rgb(0%,0%,0%);stroke-opacity:1;stroke-miterlimit:10;" d="M 210.703125 165.382812 L 230.855469 159.429688 "/>
<path style="fill:none;stroke-width:1.2;stroke-linecap:butt;stroke-linejoin:miter;stroke:rgb(0%,0%,0%);stroke-opacity:1;stroke-miterlimit:10;" d="M 230.855469 159.429688 L 235.777344 139 "/>
<path style="fill:none;stroke-width:1.2;stroke-linecap:butt;stroke-linejoin:miter;stroke:rgb(0%,0%,0%);stroke-opacity:1;stroke-miterlimit:10;" d="M 236.152344 158.542969 L 240.089844 142.203125 "/>
<path style="fill:none;stroke-width:1.2;stroke-linecap:butt;stroke-linejoin:miter;stroke:rgb(100%,0%,0%);stroke-opacity:1;stroke-miterlimit:10;" d="M 248.761719 170.421875 L 239.808594 164.925781 "/>
<path style="fill:none;stroke-width:1.2;stroke-linecap:butt;stroke-linejoin:miter;stroke:rgb(0%,0%,0%);stroke-opacity:1;stroke-miterlimit:10;" d="M 239.808594 164.925781 L 230.855469 159.429688 "/>
<path style="fill:none;stroke-width:1.2;stroke-linecap:butt;stroke-linejoin:miter;stroke:rgb(0%,0%,0%);stroke-opacity:1;stroke-miterlimit:10;" d="M 235.777344 139 L 220.542969 124.527344 "/>
<path style="fill:none;stroke-width:1.2;stroke-linecap:butt;stroke-linejoin:miter;stroke:rgb(0%,0%,0%);stroke-opacity:1;stroke-miterlimit:10;" d="M 235.777344 139 L 246.25 138.183594 "/>
<path style="fill:none;stroke-width:1.2;stroke-linecap:butt;stroke-linejoin:miter;stroke:rgb(100%,0%,0%);stroke-opacity:1;stroke-miterlimit:10;" d="M 246.25 138.183594 L 256.722656 137.367188 "/>
<path style="fill:none;stroke-width:1.2;stroke-linecap:butt;stroke-linejoin:miter;stroke:rgb(0%,0%,0%);stroke-opacity:1;stroke-miterlimit:10;" d="M 220.542969 124.527344 L 200.394531 130.480469 "/>
<path style="fill:none;stroke-width:1.2;stroke-linecap:butt;stroke-linejoin:miter;stroke:rgb(0%,0%,0%);stroke-opacity:1;stroke-miterlimit:10;" d="M 219.929688 129.863281 L 203.808594 134.625 "/>
<path style="fill:none;stroke-width:1.2;stroke-linecap:butt;stroke-linejoin:miter;stroke:rgb(100%,0%,0%);stroke-opacity:1;stroke-miterlimit:10;" d="M 256.722656 137.367188 L 260.738281 147.078125 "/>
<path style="fill:none;stroke-width:1.2;stroke-linecap:butt;stroke-linejoin:miter;stroke:rgb(0%,0%,0%);stroke-opacity:1;stroke-miterlimit:10;" d="M 260.738281 147.078125 L 264.75 156.785156 "/>
<path style=" stroke:none;fill-rule:nonzero;fill:rgb(100%,100%,100%);fill-opacity:1;" d="M 252.722656 131.867188 L 260.722656 131.867188 L 260.722656 142.867188 L 252.722656 142.867188 Z M 252.722656 131.867188 "/>
<g style="fill:rgb(100%,0%,0%);fill-opacity:1;">
  <use xlink:href="#glyph0-1" x="252.722656" y="140.530273"/>
</g>
<path style="fill:none;stroke-width:1.2;stroke-linecap:butt;stroke-linejoin:miter;stroke:rgb(0%,0%,0%);stroke-opacity:1;stroke-miterlimit:10;" d="M 264.75 156.785156 L 256.757812 163.605469 "/>
<path style="fill:none;stroke-width:1.2;stroke-linecap:butt;stroke-linejoin:miter;stroke:rgb(100%,0%,0%);stroke-opacity:1;stroke-miterlimit:10;" d="M 256.757812 163.605469 L 248.761719 170.421875 "/>
<path style=" stroke:none;fill-rule:nonzero;fill:rgb(100%,100%,100%);fill-opacity:1;" d="M 244.761719 164.921875 L 252.761719 164.921875 L 252.761719 175.921875 L 244.761719 175.921875 Z M 244.761719 164.921875 "/>
<g style="fill:rgb(100%,0%,0%);fill-opacity:1;">
  <use xlink:href="#glyph0-1" x="244.761719" y="173.584961"/>
</g>
</g>
</svg>

<svg xmlns="http://www.w3.org/2000/svg" xmlns:xlink="http://www.w3.org/1999/xlink" width="300pt" height="300pt" viewBox="0 0 300 300"><defs><symbol overflow="visible"><path d="M.453 1.594v-7.938h4.5v7.938zm.5-.5h3.5v-6.938h-3.5zm0 0"/></symbol><symbol overflow="visible" id="a"><path d="M3.547-5.953c-.65 0-1.164.242-1.547.72-.375.48-.563 1.13-.563 1.952 0 .835.188 1.49.563 1.967.383.48.898.72 1.547.72.644 0 1.156-.24 1.53-.72.376-.476.564-1.132.564-1.968 0-.822-.187-1.474-.562-1.954-.375-.477-.887-.72-1.53-.72zm0-.734c.914 0 1.648.312 2.203.937.55.617.828 1.438.828 2.47 0 1.042-.277 1.87-.828 2.483-.555.617-1.29.922-2.203.922-.93 0-1.668-.305-2.22-.922C.774-1.41.5-2.237.5-3.28c0-1.033.273-1.853.828-2.47.55-.625 1.29-.938 2.22-.938zm0 0"/></symbol></defs><g><path fill="#fff" d="M0 0h300v300H0z"/><path d="M141.336 155.945m.34 2.98l1-.296m-.664 3.276l2-.59m-1.664 3.57l3-.886m-2.664 3.867l4-1.18m-3.66 4.16l5-1.476m-4.665 4.462l6-1.773m-5.665 4.752l7-2.07m-6.96 2.403l7.113-2.102" stroke="#000" stroke-miterlimit="10" fill="none"/><path d="M168.293 176.66l-10.5-.28" stroke-width="1.2" stroke="#f00" stroke-miterlimit="10" fill="none"/><path d="M157.793 176.38l-10.504-.286M141.336 155.945l17.328-11.89M124.676 143.14l16.66 12.805M158.664 144.055l-5.953-20.15M158.664 144.055l16.66 12.804M152.71 123.906l-10.503-.285" stroke-width="1.2" stroke="#000" stroke-miterlimit="10" fill="none"/><path d="M142.207 123.62l-10.5-.28M131.707 123.34l-3.516 9.898" stroke-width="1.2" stroke="#f00" stroke-miterlimit="10" fill="none"/><path d="M128.19 133.238l-3.514 9.903" stroke-width="1.2" stroke="#000" stroke-miterlimit="10" fill="none"/><path d="M127.707 117.84h8v11h-8zm0 0" fill="#fff"/><use xlink:href="#a" x="127.707" y="126.503" fill="#f00"/><path d="M124.676 143.14l-20.15 5.954M104.527 149.094l-15.23-14.477M99.598 151.23l-12.184-11.582M99.605 169.52l4.922-20.426M89.297 134.617l-20.152 5.953M69.145 140.57L64.223 161M63.848 141.457l-3.938 16.34" stroke-width="1.2" stroke="#000" stroke-miterlimit="10" fill="none"/><path d="M51.238 129.578l8.953 5.496" stroke-width="1.2" stroke="#f00" stroke-miterlimit="10" fill="none"/><path d="M60.19 135.074l8.955 5.496M64.223 161l15.234 14.473M64.223 161l-10.473.816" stroke-width="1.2" stroke="#000" stroke-miterlimit="10" fill="none"/><path d="M53.75 161.816l-10.473.817" stroke-width="1.2" stroke="#f00" stroke-miterlimit="10" fill="none"/><path d="M79.457 175.473l20.148-5.953M80.07 170.137l16.12-4.762" stroke-width="1.2" stroke="#000" stroke-miterlimit="10" fill="none"/><path d="M43.277 162.633l-4.015-9.71" stroke-width="1.2" stroke="#f00" stroke-miterlimit="10" fill="none"/><path d="M39.262 152.922l-4.012-9.707" stroke-width="1.2" stroke="#000" stroke-miterlimit="10" fill="none"/><path d="M39.277 157.133h8v11h-8zm0 0" fill="#fff"/><use xlink:href="#a" x="39.277" y="165.796" fill="#f00"/><path d="M35.25 143.215l7.992-6.82" stroke-width="1.2" stroke="#000" stroke-miterlimit="10" fill="none"/><path d="M43.242 136.395l7.996-6.817" stroke-width="1.2" stroke="#f00" stroke-miterlimit="10" fill="none"/><path d="M47.238 124.078h8v11h-8zm0 0" fill="#fff"/><use xlink:href="#a" x="47.238" y="132.741" fill="#f00"/><path d="M175.324 156.86l-3.515 9.902" stroke-width="1.2" stroke="#000" stroke-miterlimit="10" fill="none"/><path d="M171.81 166.762l-3.517 9.898" stroke-width="1.2" stroke="#f00" stroke-miterlimit="10" fill="none"/><path d="M175.324 156.86l20.15-5.954" stroke-width="1.2" stroke="#000" stroke-miterlimit="10" fill="none"/><path d="M164.293 171.16h8v11h-8zm0 0" fill="#fff"/><use xlink:href="#a" x="164.293" y="179.823" fill="#f00"/><path d="M195.473 150.906l15.23 14.477M200.402 148.77l12.184 11.582M200.395 130.48l-4.922 20.426M210.703 165.383l20.152-5.953M230.855 159.43l4.922-20.43M236.152 158.543l3.938-16.34" stroke-width="1.2" stroke="#000" stroke-miterlimit="10" fill="none"/><path d="M248.762 170.422l-8.953-5.496" stroke-width="1.2" stroke="#f00" stroke-miterlimit="10" fill="none"/><path d="M239.81 164.926l-8.955-5.496M235.777 139l-15.234-14.473M235.777 139l10.473-.816" stroke-width="1.2" stroke="#000" stroke-miterlimit="10" fill="none"/><path d="M246.25 138.184l10.473-.817" stroke-width="1.2" stroke="#f00" stroke-miterlimit="10" fill="none"/><path d="M220.543 124.527l-20.148 5.953M219.93 129.863l-16.12 4.762" stroke-width="1.2" stroke="#000" stroke-miterlimit="10" fill="none"/><path d="M256.723 137.367l4.015 9.71" stroke-width="1.2" stroke="#f00" stroke-miterlimit="10" fill="none"/><path d="M260.738 147.078l4.012 9.707" stroke-width="1.2" stroke="#000" stroke-miterlimit="10" fill="none"/><path d="M252.723 131.867h8v11h-8zm0 0" fill="#fff"/><use xlink:href="#a" x="252.723" y="140.53" fill="#f00"/><path d="M264.75 156.785l-7.992 6.82" stroke-width="1.2" stroke="#000" stroke-miterlimit="10" fill="none"/><path d="M256.758 163.605l-7.996 6.817" stroke-width="1.2" stroke="#f00" stroke-miterlimit="10" fill="none"/><path d="M244.762 164.922h8v11h-8zm0 0" fill="#fff"/><use xlink:href="#a" x="244.762" y="173.585" fill="#f00"/></g></svg>
